images/vehicles/car-sideways-right.svg

<?xml version="1.0" standalone="no"?><!DOCTYPE svg PUBLIC "-//W3C//DTD SVG 1.1//EN" "http://www.w3.org/Graphics/SVG/1.1/DTD/svg11.dtd"><svg width="336px" height="144px" version="1.1" xmlns="http://www.w3.org/2000/svg" xmlns:xlink="http://www.w3.org/1999/xlink" xml:space="preserve" style="fill-rule:evenodd;clip-rule:evenodd;stroke-linejoin:round;stroke-miterlimit:1.41421;"><g><g id="car-sideways-right" transform="matrix(1,0,0,1,-46.7306,-468)"><path d="M353.871,587.352l-10.835,-27.003l-34.915,0l-11.413,26.336" style="fill:#5c5f60;fill-rule:nonzero;"/><path d="M162.371,587.352l-10.835,-27.003l-34.915,0l-11.413,26.336" style="fill:#5c5f60;fill-rule:nonzero;"/><path d="M353.871,588.852l-10.835,-27.003l-34.915,0l-11.413,26.336" style="fill:#5c5f60;fill-rule:nonzero;"/><path d="M162.371,588.852l-10.835,-27.003l-34.915,0l-11.413,26.336" style="fill:#5c5f60;fill-rule:nonzero;"/><path d="M367.746,592.98l9.375,-51.38l-75.511,-12.25l-65.332,-37.585l-157.27,0l-26.637,42.585l9.375,58.577l42.938,0.008l10.937,-25.772l34.625,0l10.541,25.855l134.5,-0.001l11.25,-25.667l34.834,-0.25l10.668,25.834l15.707,0.046Z" style="fill:#e4e2dc;fill-rule:nonzero;"/><path d="M350.375,588.84l17.48,3.557l-0.125,0.593l-15.774,0.009" style="fill:#f3f2ec;fill-rule:nonzero;"/><path d="M295.289,593.027l-136.354,0.072l-8.501,-25.937l-34.813,0l-11.188,25.776l-42.687,-0.008l-9.406,-58.674l29.656,-0.032l219.626,44.694l-6.333,14.109Z" style="fill:#f3f2ec;fill-rule:nonzero;"/><path d="M52.3867,534.24l2.234,14.391l21.934,0.013l5.426,-14.529l-29.594,0.125Z" style="fill:#ad2125;fill-rule:nonzero;"/><path d="M343.777,545.985l1.083,14.458l28.823,0.014l2.625,-14.511l-32.531,0.039Z" style="fill:#f6f1e1;fill-rule:nonzero;"/><path d="M52.3555,534.178l0.62,4.026l27.505,-0.042l1.516,-4.062l-29.641,0.078Z" style="fill:#fec;fill-rule:nonzero;"/><path d="M291.36,529.102l-56.751,-33.503l-114.142,0l-19.346,32.837l190.239,0.666Z" style="fill:#313156;fill-rule:nonzero;"/><path d="M76.623,495.602l17.094,-0.002l-36.764,31.375l19.67,-31.373Z" style="fill:#313156;fill-rule:nonzero;"/><path d="M192.913,493.224l-3.778,1.172l7.58,44.669l4.006,-0.834l-7.808,-45.007Z" style="fill:#e4e2dc;fill-rule:nonzero;"/><path d="M265.871,524.725l-0.396,4.292l-5.021,-0.021l0.501,-4.977l4.916,0.706Z" style="fill:#c0bdba;fill-rule:nonzero;"/><path d="M265.871,524.725l0.75,-7.875l-14.75,-2.75l-1.875,10.75l15.875,-0.125Z" style="fill:#e4e2dc;fill-rule:nonzero;"/><path d="M310.453,591.643c0,7.801 6.324,14.125 14.125,14.125c7.801,0 14.125,-6.324 14.125,-14.125c0,-7.801 -6.324,-14.125 -14.125,-14.125c-7.801,0 -14.125,6.324 -14.125,14.125" style="fill:#e3e1db;fill-rule:nonzero;"/><path d="M311.324,591.501c0,-7.021 5.691,-12.712 12.712,-12.712c7.02,0 12.712,5.691 12.712,12.712c0,7.02 -5.692,12.711 -12.712,12.711c-7.021,0 -12.712,-5.691 -12.712,-12.711M303.536,591.5c0,11.321 9.178,20.5 20.5,20.5c11.322,0 20.5,-9.179 20.5,-20.5c0,-11.321 -9.178,-20.5 -20.5,-20.5c-11.322,0 -20.5,9.179 -20.5,20.5" style="fill:#2a2b2a;fill-rule:nonzero;"/><path d="M118.788,591.643c0,7.801 6.324,14.125 14.125,14.125c7.801,0 14.125,-6.324 14.125,-14.125c0,-7.801 -6.324,-14.125 -14.125,-14.125c-7.801,0 -14.125,6.324 -14.125,14.125" style="fill:#e3e1db;fill-rule:nonzero;"/><path d="M119.659,591.501c0,-7.021 5.691,-12.712 12.712,-12.712c7.02,0 12.712,5.691 12.712,12.712c0,7.02 -5.692,12.711 -12.712,12.711c-7.021,0 -12.712,-5.691 -12.712,-12.711M111.871,591.5c0,11.321 9.178,20.5 20.5,20.5c11.322,0 20.5,-9.179 20.5,-20.5c0,-11.321 -9.178,-20.5 -20.5,-20.5c-11.322,0 -20.5,9.179 -20.5,20.5" style="fill:#2a2b2a;fill-rule:nonzero;"/></g></g></svg>

<?xml version="1.0" encoding="UTF-8" standalone="no"?>
<!DOCTYPE svg PUBLIC "-//W3C//DTD SVG 1.1//EN" "http://www.w3.org/Graphics/SVG/1.1/DTD/svg11.dtd">
<svg width="100%" height="100%" viewBox="0 0 420 180" version="1.1" xmlns="http://www.w3.org/2000/svg" xmlns:xlink="http://www.w3.org/1999/xlink" xml:space="preserve" xmlns:serif="http://www.serif.com/" style="fill-rule:evenodd;clip-rule:evenodd;stroke-linejoin:round;stroke-miterlimit:2;">
    <g id="car-sideways-right" transform="matrix(1.27,0,0,1.27,-62.7079,-597.24)">
        <path d="M353.871,587.353L343.036,560.349L308.121,560.349L296.708,586.685" style="fill:rgb(92,95,96);fill-rule:nonzero;"/>
        <path d="M162.371,587.353L151.536,560.349L116.621,560.349L105.208,586.685" style="fill:rgb(92,95,96);fill-rule:nonzero;"/>
        <path d="M353.871,588.852L343.036,561.849L308.121,561.849L296.708,588.185" style="fill:rgb(92,95,96);fill-rule:nonzero;"/>
        <path d="M162.371,588.852L151.536,561.849L116.621,561.849L105.208,588.185" style="fill:rgb(92,95,96);fill-rule:nonzero;"/>
        <path d="M367.746,592.98L377.121,541.6L301.61,529.35L236.278,491.765L79.008,491.765L52.371,534.35L61.746,592.927L104.684,592.935L115.621,567.163L150.246,567.163L160.787,593.018L295.287,593.017L306.537,567.35L341.371,567.1L352.039,592.934L367.746,592.98Z" style="fill:rgb(228,226,220);fill-rule:nonzero;"/>
        <path d="M350.375,588.84L367.855,592.397L367.73,592.99L351.956,592.999" style="fill:rgb(243,242,236);fill-rule:nonzero;"/>
        <path d="M295.289,593.027L158.935,593.099L150.434,567.162L115.621,567.162L104.433,592.938L61.746,592.93L52.34,534.256L81.996,534.224L301.622,578.918L295.289,593.027Z" style="fill:rgb(243,242,236);fill-rule:nonzero;"/>
        <path d="M52.387,534.24L54.621,548.631L76.555,548.644L81.981,534.115L52.387,534.24Z" style="fill:rgb(173,33,37);fill-rule:nonzero;"/>
        <path d="M343.777,545.985L344.86,560.443L373.683,560.457L376.308,545.946L343.777,545.985Z" style="fill:rgb(246,241,225);fill-rule:nonzero;"/>
        <path d="M52.356,534.178L52.975,538.204L80.481,538.162L81.997,534.1L52.356,534.178Z" style="fill:rgb(255,238,204);fill-rule:nonzero;"/>
        <path d="M291.36,529.103L234.609,495.599L120.467,495.599L101.121,528.436L291.36,529.103Z" style="fill:rgb(49,49,86);fill-rule:nonzero;"/>
        <path d="M76.623,495.602L93.717,495.6L56.953,526.975L76.623,495.602Z" style="fill:rgb(49,49,86);fill-rule:nonzero;"/>
        <path d="M192.913,493.224L189.135,494.396L196.715,539.065L200.721,538.231L192.913,493.224Z" style="fill:rgb(228,226,220);fill-rule:nonzero;"/>
        <path d="M265.871,524.725L265.475,529.017L260.454,528.996L260.955,524.019L265.871,524.725Z" style="fill:rgb(192,189,186);fill-rule:nonzero;"/>
        <path d="M265.871,524.725L266.621,516.85L251.871,514.1L249.996,524.85L265.871,524.725Z" style="fill:rgb(228,226,220);fill-rule:nonzero;"/>
        <path d="M310.453,591.643C310.453,599.444 316.777,605.768 324.578,605.768C332.379,605.768 338.703,599.444 338.703,591.643C338.703,583.842 332.379,577.518 324.578,577.518C316.777,577.518 310.453,583.842 310.453,591.643" style="fill:rgb(227,225,219);fill-rule:nonzero;"/>
        <path d="M311.324,591.501C311.324,584.48 317.015,578.789 324.036,578.789C331.056,578.789 336.748,584.48 336.748,591.501C336.748,598.521 331.056,604.212 324.036,604.212C317.015,604.212 311.324,598.521 311.324,591.501M303.536,591.5C303.536,602.821 312.714,612 324.036,612C335.358,612 344.536,602.821 344.536,591.5C344.536,580.179 335.358,571 324.036,571C312.714,571 303.536,580.179 303.536,591.5" style="fill:rgb(42,43,42);fill-rule:nonzero;"/>
        <path d="M118.788,591.643C118.788,599.444 125.112,605.768 132.913,605.768C140.714,605.768 147.038,599.444 147.038,591.643C147.038,583.842 140.714,577.518 132.913,577.518C125.112,577.518 118.788,583.842 118.788,591.643" style="fill:rgb(227,225,219);fill-rule:nonzero;"/>
        <path d="M119.659,591.501C119.659,584.48 125.35,578.789 132.371,578.789C139.391,578.789 145.083,584.48 145.083,591.501C145.083,598.521 139.391,604.212 132.371,604.212C125.35,604.212 119.659,598.521 119.659,591.501M111.871,591.5C111.871,602.821 121.049,612 132.371,612C143.693,612 152.871,602.821 152.871,591.5C152.871,580.179 143.693,571 132.371,571C121.049,571 111.871,580.179 111.871,591.5" style="fill:rgb(42,43,42);fill-rule:nonzero;"/>
    </g>
</svg>
